Sources/FrostedUI/Resources/Icons.xcassets/code20.imageset/code-20.svg

<svg width="20" height="20" viewBox="0 0 20 20" fill="none" xmlns="http://www.w3.org/2000/svg" data-fui-icon="true">
  <path
    d="M11.1519 2.92758C11.2609 2.52808 11.6732 2.29225 12.0728 2.40121C12.472 2.51032 12.7078 2.92273 12.5991 3.32211L8.84912 17.0721C8.74018 17.4716 8.32768 17.7071 7.92822 17.5985C7.5286 17.4895 7.29287 17.0772 7.40186 16.6776L11.1519 2.92758ZM4.24561 5.94418C4.52951 5.64272 5.00458 5.62812 5.30615 5.91196C5.60756 6.19579 5.62201 6.67091 5.33838 6.9725L3.07959 9.37192C2.74767 9.72481 2.74767 10.2749 3.07959 10.6278L5.33838 13.0272C5.62212 13.3287 5.60747 13.8038 5.30615 14.0877C5.00452 14.3716 4.52949 14.3571 4.24561 14.0555L1.98779 11.6561C1.11199 10.7256 1.11199 9.27413 1.98779 8.3436L4.24561 5.94418ZM14.6948 5.91196C14.9964 5.62849 15.4706 5.64279 15.7544 5.94418L18.0132 8.3436C18.8887 9.27403 18.8886 10.7256 18.0132 11.6561L15.7544 14.0555C15.4706 14.357 14.9964 14.3713 14.6948 14.0877C14.3932 13.8039 14.3787 13.3288 14.6626 13.0272L16.9204 10.6278C17.2524 10.2748 17.2525 9.7248 16.9204 9.37192L14.6626 6.9725C14.3787 6.67087 14.3932 6.19584 14.6948 5.91196Z"
    fill="currentColor"
  />
</svg>

<svg xmlns="http://www.w3.org/2000/svg" width="20" height="20" fill="none" data-fui-icon="true" viewBox="0 0 20 20"><path fill="currentColor" d="M11.152 2.928a.75.75 0 0 1 1.447.394l-3.75 13.75a.75.75 0 0 1-1.447-.394zM4.246 5.944a.75.75 0 0 1 1.092 1.029L3.08 9.372a.916.916 0 0 0 0 1.256l2.258 2.4a.75.75 0 0 1-1.092 1.027l-2.258-2.399a2.417 2.417 0 0 1 0-3.312zm10.449-.032a.75.75 0 0 1 1.06.032l2.258 2.4c.876.93.876 2.382 0 3.312l-2.259 2.4a.75.75 0 1 1-1.091-1.029l2.257-2.4a.916.916 0 0 0 0-1.255l-2.257-2.4a.75.75 0 0 1 .032-1.06"/></svg>
